flaticon/gastronomy/ice-cream-9.svg

<svg xmlns="http://www.w3.org/2000/svg" width="32" height="32" viewBox="0 0 24 24">
    <path d="M14 9L14 7.925781C14 7.703125 13.820312 7.523438 13.601562 7.523438 13.378906 7.523438 13.199219 7.703125 13.199219 7.925781L13.199219 9C13.199219 9.109375 13.109375 9.199219 13 9.199219 12.894531 9.199219 12.804688 9.109375 12.804688 9L12.804688 7.925781C12.804688 7.703125 12.625 7.523438 12.402344 7.523438 12.179688 7.523438 12.003906 7.703125 12.003906 7.925781L12.003906 9C12.003906 9.550781 12.449219 10 13 10 13.550781 10 14 9.550781 14 9zM11.519531 11.203125C11.300781 11.203125 11.121094 11.382812 11.121094 11.601562L11.121094 12.203125C11.121094 12.308594 11.027344 12.398438 10.921875 12.398438 10.8125 12.398438 10.722656 12.308594 10.722656 12.203125L10.722656 11.601562C10.722656 11.382812 10.542969 11.203125 10.324219 11.203125 10.101562 11.203125 9.921875 11.382812 9.921875 11.601562L9.921875 12.203125C9.921875 12.753906 10.371094 13.199219 10.921875 13.199219 11.472656 13.199219 11.921875 12.753906 11.921875 12.203125L11.921875 11.601562C11.921875 11.382812 11.742188 11.203125 11.519531 11.203125zM13.996094 14.003906C13.777344 14.003906 13.597656 14.179688 13.597656 14.402344L13.597656 15C13.597656 15.109375 13.507812 15.199219 13.398438 15.199219 13.292969 15.199219 13.199219 15.109375 13.199219 15L13.199219 14.402344C13.199219 14.179688 13.019531 14.003906 12.800781 14.003906 12.578125 14.003906 12.398438 14.179688 12.398438 14.402344L12.398438 15C12.398438 15.550781 12.847656 16 13.398438 16 13.949219 16 14.398438 15.550781 14.398438 15L14.398438 14.402344C14.398438 14.179688 14.21875 14.003906 13.996094 14.003906zM11.398438 5.980469C11.949219 5.980469 12.398438 5.535156 12.398438 4.984375L12.398438 4.386719C12.398438 4.164062 12.21875 3.984375 11.996094 3.984375 11.777344 3.984375 11.597656 4.164062 11.597656 4.386719L11.597656 4.984375C11.597656 5.089844 11.507812 5.183594 11.398438 5.183594 11.289062 5.183594 11.199219 5.089844 11.199219 4.984375L11.199219 4.386719C11.199219 4.164062 11.019531 3.984375 10.800781 3.984375 10.578125 3.984375 10.398438 4.164062 10.398438 4.386719L10.398438 4.984375C10.398438 5.535156 10.847656 5.980469 11.398438 5.980469zM11.398438 5.980469"/>
    <path d="M 14.398438 1.972656 C 14.386719 0.882812 13.492188 0 12.398438 0 L 11.601562 0 C 10.507812 0 9.613281 0.882812 9.601562 1.972656 L 7.542969 17.601562 L 10 17.601562 L 10 22.800781 C 10 23.460938 10.539062 24 11.199219 24 L 12.800781 24 C 13.304688 24 13.734375 23.6875 13.914062 23.246094 C 13.945312 23.203125 13.972656 23.15625 13.988281 23.105469 C 14.003906 23.042969 14 22.980469 13.988281 22.921875 C 13.992188 22.878906 14 22.839844 14 22.800781 L 14 17.601562 L 16.457031 17.601562 Z M 13.199219 19.148438 C 12.832031 19.046875 12.601562 18.8125 12.601562 18.601562 C 12.601562 18.386719 12.832031 18.15625 13.199219 18.054688 Z M 13.199219 19.964844 L 13.199219 22.425781 C 12.605469 22.148438 12 21.699219 12.070312 21.398438 C 12.273438 20.519531 11.277344 19.832031 10.800781 19.558594 L 10.800781 17.601562 L 12.328125 17.601562 C 12 17.851562 11.800781 18.203125 11.800781 18.601562 C 11.800781 19.277344 12.390625 19.824219 13.199219 19.964844 Z M 11.199219 23.199219 C 10.980469 23.199219 10.800781 23.019531 10.800781 22.800781 L 10.800781 20.519531 C 11.101562 20.75 11.335938 21.019531 11.289062 21.214844 C 11.074219 22.144531 12.167969 22.835938 12.929688 23.175781 C 12.886719 23.1875 12.84375 23.199219 12.800781 23.199219 Z M 10 16.800781 L 8.457031 16.800781 L 10.398438 2.050781 L 10.398438 2 C 10.398438 1.339844 10.9375 0.800781 11.601562 0.800781 L 12.398438 0.800781 C 13.0625 0.800781 13.601562 1.339844 13.601562 2 L 15.542969 16.800781 Z M 10 16.800781"/>
</svg>

<svg xmlns="http://www.w3.org/2000/svg" width="32" height="32" viewBox="0 0 24 24">
    <path d="M14 9V7.926a.401.401 0 1 0-.8 0V9a.2.2 0 0 1-.2.2.2.2 0 0 1-.195-.2V7.926a.402.402 0 0 0-.403-.403.398.398 0 0 0-.398.403V9A.999.999 0 1 0 14 9zm0 0M11.52 11.203a.4.4 0 0 0-.399.399v.601a.202.202 0 0 1-.2.195.2.2 0 0 1-.198-.195v-.601a.4.4 0 0 0-.801 0v.601c0 .55.45.996 1 .996s1-.445 1-.996v-.601a.401.401 0 0 0-.402-.399zm0 0M13.996 14.004a.398.398 0 0 0-.398.398V15a.2.2 0 0 1-.2.2c-.105 0-.199-.09-.199-.2v-.598a.398.398 0 0 0-.398-.398.398.398 0 0 0-.403.398V15c0 .55.45 1 1 1 .551 0 1-.45 1-1v-.598a.398.398 0 0 0-.402-.398zm0 0M11.398 5.98c.551 0 1-.445 1-.996v-.597a.401.401 0 0 0-.8 0v.597c0 .106-.09.2-.2.2-.109 0-.199-.094-.199-.2v-.597a.401.401 0 1 0-.8 0v.597c0 .551.449.996 1 .996zm0 0"/>
    <path d="M14.398 1.973a2 2 0 0 0-2-1.973h-.796a2 2 0 0 0-2 1.973L7.543 17.602H10V22.8c0 .66.54 1.199 1.2 1.199h1.6c.505 0 .934-.313 1.114-.754a.486.486 0 0 0 .074-.14.416.416 0 0 0 0-.184c.004-.043.012-.082.012-.121v-5.2h2.457zM13.2 19.148c-.367-.101-.597-.335-.597-.546 0-.215.23-.446.597-.547zm0 .817v2.46c-.594-.277-1.199-.726-1.129-1.027.203-.878-.793-1.566-1.27-1.84v-1.956h1.528c-.328.25-.527.601-.527 1 0 .675.59 1.222 1.398 1.363zm-2 3.234a.4.4 0 0 1-.398-.398V20.52c.3.23.535.5.488.695-.215.93.879 1.62 1.64 1.96-.042.012-.085.024-.128.024zM10 16.801H8.457l1.941-14.75V2c0-.66.54-1.2 1.204-1.2h.796c.665 0 1.204.54 1.204 1.2l1.941 14.8zm0 0"/>
</svg>
